!! 00000] TT[00
!! NN
!!!OTL: Gao shan diao
!!!ARE: Asia, China,ÿTaiwan, Xinzhu
!! Ethnic Group: Han
!! IV, 627
!!!SCT: C0446
!!!YEM: Copyright 1995, estate of Helmut Schaffrath.
**kern
*ICvox
*Ivox
!! Mixed meters:  2/4; 4/4
*M4/4
*k[f#c#g#]
*A:
{4r
8cc#
8cc#
8ff#
8ff#
8ccc#
8ccc#
=1
8ff#
16aa
16bb
2aa}
{8ccc#
8ee#
=2
8ff#
16aa
16bb
8ff#
8cc#
4.cc#
8ee#
=3
12ff#
12aa
12ccc#
12ccc#
12aa
12ee#
2ff#
=4
*M2/4
2cc#}
=5
*M4/4
{4r
8cc#
8ff#
12ff#
12aa
12ccc#
8ccc#
8ccc#
=6
8ccc#
8aa
2aa
4ccc#}
=7
{8ff#
16aa
16bb
8ff#
[8cc#
4.cc#]
8ee#
=8
12ff#
12aa
12ccc#
12ccc#
12aa
12ee#
2ff#
=9
2cc#}
==
!!!AGN: Shange, Kejia shange, Dashan ge
!! von Ke ren in Taiwan.
!!    Wenig Verzierungen, Glissandi. Druckfehler: T.2 analog zu T.6 ergaenzt.
!!!ONB: ESAC (Essen Associative Code) Database: CHINA
!!!AMT: irregular
!!!AIN: vox
!!!EED: Helmut Schaffrath
!!!EEV: 1.0
*-
